!!!!SEGMENT: pl-sa--472-a-viii-112_graun-carl-heinrich-ave-maris-stella.krn
!!!id: 17xx:621
!!!COM: Graun, Carl Heinrich
!!!OTL: Ave maris stella
!!!PDT:
!!!SMS-siglum: PL-SA
!!!SMS-shelfmark: 472/A VIII 112
!!!NIFC-rismID: 1001029984
!!!URL-scan: http://bc.bdsandomierz.pl/dlibra/publication/1190/edition/1149/content
!!!ONB-nifc:
!!!SMS-variant:
!!!SMS-altvar:
**kern	**kern	**kern	**kern	**kern	**text
*part5	*part4	*part3	*part2	*part1	*part1
*staff5	*staff4	*staff3	*staff2	*staff1	*staff1
*I"Organo	*I"Alto Viola	*I"Violino 2do.	*I"Violino Primo	*I"Canto Solo	*
*I'org	*I'avla	*I'vn 2	*I'vn 1	*I'C	*
*group3	*group2	*group2	*group2	*group1	*
*clefF4	*clefC3	*clefG2	*clefG2	*clefC1	*
*k[b-e-]	*k[b-e-]	*k[b-e-]	*k[b-e-]	*k[b-e-]	*
*M2/4	*M2/4	*M2/4	*M2/4	*M2/4	*
=1	=1	=1	=1	=1	=1
*2\right	*2\right	*2\right	*2\right	*2\right	*
!LO:TX:b:t=Ave Maris Stella	!	!	!	!	!
!LO:TX:a:t=Vivace Aria	!LO:TX:a:t=Vivace Aria	!LO:TX:a:t=Vivace...Aria.	!LO:TX:a:t=Vivace Aria	!LO:TX:a:t=Vivace	!
!	!	!	!	!LO:N:vis=00	!
8B-\L	4d\	4b-\	4b-\	0r	.
8B-\	.	.	.	.	.
.	8qqf/	8qqdd/	8qqdd/	.	.
8B-\	8e-\L	8cc\L	8cc\L	.	.
8B-\J	16d\L	16b-\L	16b-\L	.	.
.	16c\JJ	16a\JJ	16a\JJ	.	.
=2	=2	=2	=2	=2	=2
8B-\L	8d\L	8.b-\L	8.b-\L	.	.
8B-\	8d\	.	.	.	.
.	.	16a\Jk	16a\Jk	.	.
8B-\	8d\J	16b-\LL	16b-\LL	.	.
.	.	16a\	16cc\	.	.
8B-\J	8r	16b-\	16dd\	.	.
.	.	16cc\JJ	16ee-\JJ	.	.
=3	=3	=3	=3	=3	=3
8B-\L	8r	8dd\L	8ff\L	.	.
8B-\	4b-\	16cc\L	16ee-\L	.	.
.	.	16b-\JJ	16dd\JJ	.	.
.	.	8qqdd/	8qqff/	.	.
8F\	.	4cc\	4ee-\	.	.
8F\J	8a\	.	.	.	.
=4	=4	=4	=4	=4	=4
!	!LO:TX:a:t=P:problem: mixed beam	!	!	!	!
8BB-/L	8b-\L	4b-\	4dd\	.	.
8BB-/	8B-/	.	.	.	.
8D/	8d/	4r	4r	.	.
8F/J	8f/J	.	.	.	.
=5	=5	=5	=5	=5	=5
*tremolo	*	*	*	*	*
*tremolo	*	*	*	*	*
!	!	!	!	!LO:N:vis=00	!
8B-\L	4d\	4b-\	4b-\	0r	.
8B-\	.	.	.	.	.
.	8qqf/	8qqdd/	8qqdd/	.	.
8B-\	8e-\L	8cc\L	8cc\L	.	.
8B-\J	16d\L	16b-\L	16b-\L	.	.
.	16c\JJ	16a\JJ	16a\JJ	.	.
=6	=6	=6	=6	=6	=6
8B-\L	8d\L	8.b-\L	8.b-\L	.	.
8B-\	8d\	.	.	.	.
.	.	16a\Jk	16a\Jk	.	.
8B-\	8d\J	16b-\LL	16b-\LL	.	.
.	.	16cc\	16cc\	.	.
8B-\J	8r	16b-\	16dd\	.	.
.	.	16cc\JJ	16ee-\JJ	.	.
*Xtremolo	*	*	*	*	*
=7	=7	=7	=7	=7	=7
8B-\L	8r	8dd\L	8ff\L	.	.
8B-\	4b-\	16cc\L	16ee-\L	.	.
.	.	16b-\JJ	16dd\JJ	.	.
.	.	8qqdd/	.	.	.
8F\	.	4cc\	4ee-\	.	.
8F\J	8a\	.	.	.	.
=8	=8	=8	=8	=8	=8
!	!LO:TX:a:t=P:problem: mixed beam	!	!	!	!
8BB-/L	8b-\L	4b-\	4dd\	.	.
8BB-/	8B-/	.	.	.	.
8D/	8d/	8r	8r	.	.
!	!	!LO:TX:a:t=P:problem:8\ chorągiewki w lewo:global	!LO:TX:a:t=P:problem:8\ chorągiewki w lewo:global	!	!
8BB-/J	8B-/J	8b-\	8dd\	.	.
=9	=9	=9	=9	=9	=9
*tremolo	*tremolo	*	*	*	*
*	*tremolo	*	*	*	*
!	!	!	!	!LO:N:vis=00	!
8F\L	8f\L	(32a\LLL	(32cc\LLL	0r	.
.	.	32b-\JJ	32dd\JJ	.	.
.	.	8.cc\J)	8.ee-\J)	.	.
8F\	8f\	.	.	.	.
8F\	8f\	(32b-\LLL	(32dd\LLL	.	.
.	.	32cc\JJ	32ee-\JJ	.	.
.	.	8.dd\J)	8.ff\J)	.	.
8F\J	8f\J	.	.	.	.
=10	=10	=10	=10	=10	=10
8F\L	8f\L	8dd\	8ff\	.	.
8F\	8f\	4cc\	4ee-\	.	.
8F\	8f\	.	.	.	.
8F\J	8f\J	16b-\LL	16dd\LL	.	.
.	.	16a\JJ	16cc\JJ	.	.
=11	=11	=11	=11	=11	=11
8F\L	8f\L	16dd\LL	16cc\LL	.	.
.	.	16b-\	16a\	.	.
8F\	8f\	16ff\	16ff\	.	.
.	.	16dd\JJ	16dd\JJ	.	.
8F\	8f\	16bb-\LL	16bb-\LL	.	.
.	.	16dd\	16dd\	.	.
8F\J	8f\J	16cc\	16cc\	.	.
.	.	16b-\JJ	16b-\JJ	.	.
!	!	!	!LO:LB:g=original	!	!
*Xtremolo	*Xtremolo	*	*	*	*
=12	=12	=12	=12	=12	=12
!LO:TX:a:t=P:problem: mixed beam	!	!	!	!	!
8FF/L	8c\L	16a\LL	(16a\LL	.	.
.	.	16cc\	16cc\	.	.
8F\	8a\	16ff\	16ff\)	.	.
.	.	16a\JJ	16a\JJ	.	.
!	!	!LO:LB:g=original	!	!	!
8En\	8g\	16b-\LL	16b-\LL	.	.
.	.	16g\	16g\	.	.
8C\J	8en\J	16gg\	16gg\	.	.
.	.	16b-\JJ	16b-\JJ	.	.
=13	=13	=13	=13	=13	=13
!LO:TX:a:t=P:problem: mixed beam	!	!	!	!LO:N:vis=00	!
8FF/L	8f\L	16a\LL	16a\LL	0r	.
.	.	16cc\	16cc\	.	.
8F\	8a\	16ff\	16ff\	.	.
.	.	16a\JJ	16a\JJ	.	.
8En\	8g\	16b-\LL	16b-\LL	.	.
.	.	16g\	16g\	.	.
8C\J	8en\J	16gg\	16gg\	.	.
.	.	16b-\JJ	16b-\JJ	.	.
=14	=14	=14	=14	=14	=14
8F\L	8f\L	16a\LL	16a\LL	.	.
.	.	16f\	16f\	.	.
8E-\	8f\	16cc\	16cc\	.	.
.	.	16a\JJ	16a\JJ	.	.
8D\	8f\	16b-\LL	16b-\LL	.	.
.	.	16f\	16f\	.	.
8C\J	8a\J	16ee-\	16ee-\	.	.
.	.	16cc\JJ	16cc\JJ	.	.
=15	=15	=15	=15	=15	=15
!LO:TX:a:t=P:problem: mixed beam	!	!	!	!	!
8BB-/L	8b-\L	16dd\LL	16dd\LL	.	.
.	.	16ff\	16ff\	.	.
8B-\	8dd\	16bb-\	16bb-\	.	.
.	.	16ff\JJ	16dd\JJ	.	.
8A\	8cc\	16ee-\LL	16ee-\LL	.	.
.	.	16cc\	16cc\	.	.
8F\J	8a\J	16ccc\	16ccc\	.	.
.	.	16ee-\JJ	16ee-\JJ	.	.
=16	=16	=16	=16	=16	=16
!LO:TX:a:t=P:problem: mixed beam	!	!	!	!	!
8BB-/L	8b-\L	16dd\LL	16dd\LL	.	.
.	.	16ff\	16ff\	.	.
8B-\	8dd\	16bb-\	16bb-\	.	.
.	.	16dd\JJ	16dd\JJ	.	.
8A\	8cc\	16ee-\LL	16ee-\LL	.	.
.	.	16cc\	16cc\	.	.
8F\J	8a\J	16ccc\	16ccc\	.	.
.	.	16ee-\JJ	16ee-\JJ	.	.
=17	=17	=17	=17	=17	=17
!LO:TX:a:t=P:problem:t. 17-18 ujęte w repetycję	!	!	!	!LO:N:vis=00	!
4BB-/	4b-\	16dd\LL	16dd\LL	0r	.
.	.	16ff\	16ff\	.	.
.	.	16bb-\	16bb-\	.	.
.	.	16ff\JJ	16ff\JJ	.	.
4E-\	4b-\	16gg\LL	16gg\LL	.	.
.	.	16ee-\	16ee-\	.	.
.	.	16dd\	16dd\	.	.
.	.	16cc\JJ	16cc\JJ	.	.
!LO:LB:g=original	!LO:LB:g=original	!	!	!	!
=18	=18	=18	=18	=18	=18
8r	8r	8.b-\L	8.b-\L	.	.
8D\L	8f\L	.	.	.	.
.	.	16cc\Jk	16cc\Jk	.	.
!	!	!LO:TX:a:t=t	!LO:TX:a:t=t	!	!
8E-\	8g\	4cc\	4cc\	.	.
8F\J	8a\J	.	.	.	.
=19	=19	=19	=19	=19	=19
!LO:TX:a:t=P:problem:t. 19-20 zapisane repetycją	!LO:TX:a:t=P:problem:brakujące 2 takty	!	!	!	!
4BB-/yy	2ryy	16dd\LL	16dd\LL	.	.
.	.	16ff\	16ff\	.	.
.	.	16bb-\	16bb-\	.	.
.	.	16ff\JJ	16ff\JJ	.	.
4E-\yy	.	16gg\LL	16gg\LL	.	.
.	.	16ee-\	16ee-\	.	.
.	.	16dd\	16dd\	.	.
.	.	16cc\JJ	16cc\JJ	.	.
=20	=20	=20	=20	=20	=20
8ryy	2ryy	8.b-\L	8.b-\L	.	.
8D\Lyy	.	.	.	.	.
.	.	16cc\Jk	16cc\Jk	.	.
!	!	!LO:TX:a:t=t	!LO:TX:a:t=t	!	!
8E-\yy	.	4cc\	4cc\	.	.
8F\Jyy	.	.	.	.	.
!	!	!	!LO:LB:g=original	!	!
=21	=21	=21	=21	=21	=21
4BB-/	8b-\L	8b-/L	8b-/L	2r	.
.	8f\J	8f/J	8f/J	.	.
4r	4B-/	4B-/	4B-/	.	.
!LO:TX:a:t=[segno]	!	!LO:TX:a:t=[segno]	!LO:TX:a:t=[segno]	!	!
=22||	=22||	=22||	=22||	=22||	=22||
*tremolo	*tremolo	*	*	*	*
!	!	!	!	!LO:TX:a:t=Aria 1ma	!
8B-\L	8B-/L	4d/	4b-\	4b-\	A-
8B-\	8B-/	.	.	.	.
.	.	8qqf/	.	8qqdd/	.
!	!	!	!	!LO:TX:a:t=P:problem:8\ chorągiewki w lewo:global	!
8B-\	8B-/	8e-/L	8cc\L	8cc\	.
8B-\J	8B-/J	16d/L	16b-\L	16b-\LL	-ve
.	.	16c/JJ	16a\JJ	16a\JJ	.
!	!	!LO:LB:g=original	!	!	!
=23	=23	=23	=23	=23	=23
8B-\L	8B-/L	8d/L	8.b-\L	8.b-\L	Ma-
8B-\	8B-/	8d/J	.	.	.
.	.	.	16a\Jk	16a\Jk	.
!	!	!LO:TX:a:t=P:problem: mixed beam	!	!	!
8B-\	8B-/	8d/L	16b-\LL	16b-\LL	.
.	.	.	16cc\	16cc\	.
8B-\J	8B-/J	16b-\L	16dd\	16dd\	.
.	.	16cc\JJ	16ee-\JJ	16ee-\JJ	.
*Xtremolo	*Xtremolo	*	*	*	*
=24	=24	=24	=24	=24	=24
8B-\L	8r	8dd\L	8ff\L	8ff\	.
8B-\	4b-\	16cc\L	16ee-\L	16ee-\LL	-ris
.	.	16b-\JJ	16dd\JJ	16dd\JJ	.
.	.	8qqdd/	8qqff/	8qqdd/	.
8F\	.	4cc\	4ee-\	4ee-\	ſtel-
8F\J	8a\	.	.	.	.
=25	=25	=25	=25	=25	=25
!	!LO:TX:a:t=P:problem: mixed beam	!	!	!	!
8BB-/L	8b-\L	4b-\	4dd\	4dd\	-la
8BB-/	8B-/	.	.	.	.
8D/	8d/	4r	4r	4r	.
8F/J	8f/J	.	.	.	.
=26	=26	=26	=26	=26	=26
*tremolo	*tremolo	*	*	*	*
8B-\L	8B-/L	4d/	4b-\	4b-\	De-
8B-\	8B-/	.	.	.	.
.	.	8qqf/	8qqdd/	8qqdd/	.
8B-\	8B-/	8e-/L	8cc\L	8cc\L	-i
8B-\J	8B-/J	16d/L	16b-\L	16b-\L	ma-
.	.	16c/JJ	16a\JJ	16a\JJ	.
=27	=27	=27	=27	=27	=27
8B-\L	8B-/L	8d/L	8.b-\L	8.b-\L	.
8B-\	8B-/	8d/J	.	.	.
.	.	.	16a\Jk	16a\Jk	.
!	!	!LO:TX:a:t=P:problem: mixed beam	!	!	!
8B-\	8B-/	8d/L	16b-\LL	16b-\LL	.
.	.	.	16cc\	16cc\	.
8B-\J	8B-/J	16b-\L	16dd\	16dd\	.
.	.	16cc\JJ	16ee-\JJ	16ee-\JJ	.
*Xtremolo	*Xtremolo	*	*	*	*
=28	=28	=28	=28	=28	=28
8B-\L	8r	8dd\L	8ff\L	8ff\	.
8B-\	4b-\	16cc\L	16ee-\L	16ee-\LL	-ter
.	.	16b-\JJ	16dd\JJ	16dd\JJ	.
.	.	8qqdd/	8qqff/	.	.
8F\	.	4cc\	4ee-\	4ee-\	al-
8F\J	8a\	.	.	.	.
=29	=29	=29	=29	=29	=29
!	!LO:TX:a:t=P:problem: mixed beam	!	!	!	!
8BB-/L	8b-\L	4b-\	4dd\	4dd\	-ma
8BB-/	8B-/	.	.	.	.
8D/	8d/	8r	8r	8r	.
8BB-/J	8B-/J	8b-\	8dd\	8dd\	at-
=30	=30	=30	=30	=30	=30
*tremolo	*tremolo	*	*	*	*
8F\L	8f\L	(32a\LLL	(32cc\LLL	32cc\LLL	.
.	.	32b-\JJ	32dd\JJ	32dd\JJ	.
.	.	8.cc\J)	8.ee-\J)	8.ee-\J	.
8F\	8f\	.	.	.	.
8F\	8f\	(32b-\LLL	(32dd\LLL	32dd\LLL	-que
.	.	32cc\JJ	32ee-\JJ	32ee-\JJ	.
.	.	8.dd\J)	8.ff\J)	8.ff\J	.
8F\J	8f\J	.	.	.	.
!	!	!	!	!LO:LB:g=original	!
=31	=31	=31	=31	=31	=31
8F\L	8f\L	8dd\	8ff\	8ff\	ſem-
8F\	8f\	4cc\	4ee-\	4ee-\	.
8F\	8f\	.	.	.	.
8F\J	8f\J	16b-\LL	16dd\LL	16dd\LL	-per
.	.	16a\JJ	16cc\JJ	16cc\JJ	.
=32	=32	=32	=32	=32	=32
.	.	8qqa/	8qqcc/	8qqcc/	.
8F\L	8f\L	2b-\	2dd\	2dd\	Vir-
8F\	8f\	.	.	.	.
8F\	8f\	.	.	.	.
8F\J	8f\J	.	.	.	.
*Xtremolo	*Xtremolo	*	*	*	*
!	!	!	!LO:LB:g=original	!	!
=33	=33	=33	=33	=33	=33
!LO:TX:a:t=P:problem: mixed beam	!	!	!	!	!
8FF/L	8f\L	8a\L	16cc\LL	4cc\	-go
.	.	.	16a\	.	.
8F\	8a\	16ff\L	16ff\	.	.
.	.	16a\JJ	16a\JJ	.	.
8En\	8g\	16b-\LL	16b-\LL	8r	.
.	.	16g\	16g\	.	.
8C\J	8en\J	16gg\	16gg\	8b-\	Vir-
.	.	16b-\JJ	16b-\JJ	.	.
=34	=34	=34	=34	=34	=34
4FF/	4f\	4a/	4a/	16a\LL	.
.	.	.	.	16g\JJ	.
.	.	.	.	8f/	-go
4r	4r	4r	4r	8r	.
.	.	.	.	8f/	fe-
=35	=35	=35	=35	=35	=35
8r	8r	8r	8r	4.cc\	.
8F\L	8f\L	8cc\L	8aa\L	.	.
8En\	8en\	8cc\	8aa\	.	.
8D\J	8d\J	8bn\J	8ff\J	8ff\	-lix
!	!	!LO:LB:g=original	!	!	!
=36	=36	=36	=36	=36	=36
*tremolo	*	*	*	*	*
8C/L	8g\L	8cc\L	8ff\L	8ff\L	ce-
8C/	8g\	8cc\	8ff\	16een\L	-li
.	.	.	.	16dd\JJ	.
8C/	8g\	8g\	8een\	8cc\	.
8C/J	8f\J	8a\J	8ff\J	8cc\	fe-
=37	=37	=37	=37	=37	=37
8C/L	8en\L	8b-/L	8gg\L	8b-\	.
8C/	8e\	8b-/	8gg\	8b-\	-lix
8C/	8f\	8b-/	8gg\	8b-\	cae-
8C/J	8g\J	8a/J	8ff\J	8a\	-li
!	!LO:LB:g=original	!	!	!	!
=38	=38	=38	=38	=38	=38
*	*tremolo	*	*	*	*
8C/L	8c\L	8a/L	8ff\L	8a\	por-
8C/	8c\	8g/	8een\	8g\	-ta
8C/	8c\	8g/	8ee\	8r	.
8C/J	8c\J	8a/J	8ee\J	8a\	por-
*Xtremolo	*Xtremolo	*	*	*	*
=39	=39	=39	=39	=39	=39
8D\L	8d\L	8b-\L	8dd\L	16b-\LL	.
.	.	.	.	16cc\	.
8D\	8d\	8b-\	8dd\	16dd\	.
.	.	.	.	16cc\JJ	.
8En\	8en\	8b-\	8dd\	16dd\LL	.
.	.	.	.	16b-\	.
8E\J	8e\J	8b-\J	8dd\J	16a\	.
.	.	.	.	16g\JJ	.
!LO:LB:g=original	!	!	!	!	!
=40	=40	=40	=40	=40	=40
*tremolo	*tremolo	*	*	*	*
8F\L	8f\L	8a/	8cc\	16a\LL	.
.	.	.	.	16g\	.
8F\	8f\	8r	8r	16a\	.
.	.	.	.	16b-\JJ	.
!	!	!	!	!LO:LB:g=original	!
8F\	8f\	4r	4r	16cc\LL	.
.	.	.	.	16dd\	.
8F\J	8f\J	.	.	16een\	.
.	.	.	.	16ff\JJ	.
=41	=41	=41	=41	=41	=41
8En\L	8c\L	8r	8r	8gg\	.
!	!	!	!LO:TX:a:t=P:problem: mixed beam	!	!
8En\	8c\	8b-/L	8gg\L	4b-\	.
8En\	8c\	8b-/	8gg\	.	.
8En\J	8c\J	8g/J	8b-/J	16a\LL	.
.	.	.	.	16g\JJ	.
*	*Xtremolo	*	*	*	*
=42	=42	=42	=42	=42	=42
8F\L	8c\L	8f/	8a/	16a\LL	.
.	.	.	.	16g\	.
8F\	8f\	8r	8r	16a\	.
.	.	.	.	16b-\JJ	.
8F\	8f\	4r	4r	16cc\LL	.
.	.	.	.	16dd\	.
8F\J	8f\J	.	.	16een\	.
.	.	.	.	16ff\JJ	.
=43	=43	=43	=43	=43	=43
*	*tremolo	*	*	*	*
8En\L	8c\L	8r	8r	8gg\	.
!	!	!	!LO:TX:a:t=P:problem: mixed beam	!	!
8En\	8c\	8b-/L	8gg\L	4b-\	.
8En\	8c\	8b-/	8gg\	.	.
8En\J	8c\J	8g/J	8b-/J	16a\LL	.
.	.	.	.	16g\JJ	.
=44	=44	=44	=44	=44	=44
*	*	*tremolo	*	*	*
*	*	*tremolo	*	*	*
8F\L	8f\L	8f/L	8a\L	8a\L	.
8F\	8f\	8f/	16ff\L	16ff\L	.
.	.	.	16dd\JJ	16dd\JJ	.
8F\	8f\	8f/	8a\L	8a\L	.
8F\J	8f\J	8f/J	8bn\J	8bn\J	.
=45	=45	=45	=45	=45	=45
8En\L	8en\L	8g/L	4b-\	4bn\	.
8En\	8en\	8g/	.	.	.
8En\	8en\	8g/	4cc\	4cc\	.
8En\J	8en\J	8g/J	.	.	.
!	!	!	!LO:LB:g=original	!	!
=46	=46	=46	=46	=46	=46
8D\L	8d\L	8f/L	8cc\L	8cc\L	.
8D\	8d\	8f/	16ff\L	16ff\L	.
.	.	.	16dd\JJ	16dd\JJ	.
8D\	8d\	8f/	8a\L	8a\L	.
8D\J	8d\J	8f/J	8bn\J	8bn\J	.
*	*	*Xtremolo	*	*	*
=47	=47	=47	=47	=47	=47
8C/L	8c\L	4f/	4b-\	4bn\	.
8C/	8c\	.	.	.	.
8C/	8c\	8en/L	(8cc\L	8cc\L	.
8C/J	8c\J	8f/J	8dd\J)	8dd\J	.
=48	=48	=48	=48	=48	=48
8C/L	8c\L	4f/	4dd\	4dd\	.
8C/	8c\	.	.	.	.
8C/	8c\	8g/L	8een\L	8een\L	.
8C/J	8c\J	8a/J	8ff\J	8ff\J	.
=49	=49	=49	=49	=49	=49
8C/L	8c\L	4a/	4ff\	4ff\	.
8C/	8c\	.	.	.	.
8C/	8c\	8b-/L	8gg\L	8gg\L	.
8C/J	8c\J	8g/J	8een\J	8een\J	.
=50	=50	=50	=50	=50	=50
8C/L	8c\L	4g/	4ee-\	4een\	.
8C/	8c\	.	.	.	.
!	!	!	!LO:TX:a:t=P:problem: mixed beam	!	!
8C/	8c\	8a/L	8ff\L	8ff\L	.
8C/J	8c\J	8f/J	8a/J	8a\J	.
=51	=51	=51	=51	=51	=51
2C;/	8c;\L	4f;/	4a;/	4a;\	.
.	8c;\	.	.	.	.
.	8c;\	4en/	4g/	4g;\	-ta
.	8c;\J	.	.	.	.
*Xtremolo	*Xtremolo	*	*	*	*
=52	=52	=52	=52	=52	=52
!	!	!LO:TX:a:t=P:problem:kropka nad pauzą	!	!	!
2r	2r	2r	2r;	4r	.
.	.	.	.	8r	.
.	.	.	.	8cc\	Fe-
!	!	!LO:LB:g=original	!	!LO:LB:g=original	!
=53	=53	=53	=53	=53	=53
!LO:TX:a:t=P:problem: mixed beam	!	!	!	!	!
8FF/L	8f\L	16a\LL	16a\LL	4.cc\	.
.	.	16cc\	16cc\	.	.
8F\	8a\	16ff\	16ff\	.	.
.	.	16a\JJ	16a\JJ	.	.
8En\	8g\	16b-\LL	16b-\LL	.	.
.	.	16g\	16g\	.	.
8C\J	8en\J	16gg\ 16ff	16gg\	8cc\	-lix
.	.	16b-\JJ 16a	16b-\JJ	.	.
=54	=54	=54	=54	=54	=54
!LO:TX:a:t=P:problem: mixed beam	!	!	!	!	!
8FF/L	8f\L	16a\LL	16a\LL	8cc\L	cae-
.	.	16cc\	16cc\	.	.
8F\	8a\	16ff\	16ff\	8ff\J	.
.	.	16a\JJ	16a\JJ	.	.
8En\	8g\	16b-\LL	16b-\LL	4cc\	-li
.	.	16g\	16g\	.	.
8C\J	8en\J	16gg\	16gg\	.	.
.	.	16b-\JJ	16b-\JJ	.	.
=55	=55	=55	=55	=55	=55
!LO:TX:a:t=P:problem: mixed beam	!	!	!	!	!
8FF/L	8f\L	16a\LL	16a\LL	4r	.
.	.	16cc\	16cc\	.	.
8F\	8a\	16ff\	16ff\	.	.
.	.	16a\JJ	16a\JJ	.	.
8En\	8g\	16b-\LL	16b-\LL	4cc\	cae-
.	.	16g\	16g\	.	.
8C\J	8en\J	16gg\	16gg\	.	.
.	.	16b-\JJ	16b-\JJ	.	.
=56	=56	=56	=56	=56	=56
!LO:TX:a:t=P:problem: mixed beam	!	!	!	!	!
8FF/L	8f\L	16a\LL	16a\LL	8cc\L	.
.	.	16cc\	16cc\	.	.
8F\	8a\	16ff\	16ff\	8ff\J	.
.	.	16a\JJ	16a\JJ	.	.
8En\	8g\	16b-\LL	16b-\LL	4cc\	-li
.	.	16g\	16g\	.	.
8C\J	8en\J	16gg\	16gg\	.	.
.	.	16b-\JJ	16b-\JJ	.	.
=57	=57	=57	=57	=57	=57
!LO:TX:a:t=P:problem: mixed beam	!	!	!	!	!
8FF/L	8f\L	16a\LL	16a\LL	8r	.
.	.	16cc\	16cc\	.	.
8F\	8a\	16ff\	16ff\	8cc\	fe-
.	.	16a\JJ	16a\JJ	.	.
!	!	!	!LO:LB:g=original	!	!
8En\	8g\	16b-\LL	16b-\LL	8cc\L	.
.	.	16g\	16g\	.	.
8C\J	8en\J	16gg\	16gg\	8cc\J	-lix
.	.	16b-\JJ	16b-\JJ	.	.
=58	=58	=58	=58	=58	=58
8F\L	8f\L	16a\LL	16a\LL	8aa\L	cae-
.	.	16ff\	16aa\	.	.
8G\	8g\	16een\	16gg\	16gg\L	.
.	.	16dd\JJ	16ff\JJ	16ff\JJ	.
8A\	8a\	16cc\LL	16een\LL	16een\LL	-li
.	.	16b-\	16dd\	16dd\JJ	.
8B-\J	8b-\J	16a\	16cc\	16cc\LL	.
.	.	16g\JJ	16b-\JJ	16b-\JJ	.
!LO:LB:g=original	!LO:LB:g=original	!	!	!	!
=59	=59	=59	=59	=59	=59
!LO:TX:a:t=P:problem: mixed beam	!	!	!	!	!
8c\L	8c\	8f/	8a/	4a\	.
8c\	8r	8r	8r	.	.
!	!	!	!	!LO:TX:a:t=t	!
8C/	8c\	8en/	8g/	4g\	por-
8C/J	8r	8r	8r	.	.
=60	=60	=60	=60	=60	=60
*tremolo	*	*	*	*	*
8F\L	4a\	4ff\	4ff\	4f/	-ta
8F\	.	.	.	.	.
.	.	8qqaa/	.	.	.
8F\	8b-\L	8gg\L	8gg\L	4r	.
8F\J	16a\L	16ff\L	16ff\L	.	.
.	16g\JJ	16een\JJ	16een\JJ	.	.
=61	=61	=61	=61	=61	=61
!	!	!	!	!LO:N:vis=00	!
8F\L	8a\L	8ff\L	8.ff\L	0r	.
8F\	8a\	16ff\L	.	.	.
.	.	16een\JJ	16een\Jk	.	.
8F\	8a\J	16ff\LL	16ff\LL	.	.
.	.	16ee\	16gg\	.	.
8F\J	8r	16ff\	16aa\	.	.
.	.	16gg\JJ	16bb-\JJ	.	.
*Xtremolo	*	*	*	*	*
=62	=62	=62	=62	=62	=62
8F\L	8r	8aa\L	8ccc\L	.	.
8F\	4f\	16gg\L	16bb-\L	.	.
.	.	16ff\JJ	16aa\JJ	.	.
.	.	8qqaa/	8qqccc/	.	.
8C\	.	4gg\	4bb-\	.	.
8C\J	8en\	.	.	.	.
!	!	!LO:LB:g=original	!	!	!
=63	=63	=63	=63	=63	=63
8F\L	8f\L	16ff\LL	16aa\LL	.	.
.	.	16ccc\	16ccc\	.	.
8G\	8b-\	16een\	16een\	.	.
.	.	16gg\JJ	16gg\JJ	.	.
8A\	8cc\	16ff\LL	16ff\LL	.	.
.	.	16aa\	16aa\	.	.
8F\J	8a\J	16cc\	16cc\	.	.
.	.	16ee-X\JJ	16ee-X\JJ	.	.
=64	=64	=64	=64	=64	=64
8B-\L	8f\L	16dd\LL	16dd\LL	.	.
.	.	16ff\	16ff\	.	.
8c\	8e-\	16a\	16a\	.	.
.	.	16cc\JJ	16cc\JJ	.	.
8d\	8f\	16b-\LL	16b-\LL	.	.
.	.	16dd\	16dd\	.	.
8B-\J	8c\J	16g\	16g\	.	.
.	.	16b-\JJ	16b-\JJ	.	.
=65	=65	=65	=65	=65	=65
.	.	8qqf/	8qqf/	.	.
!	!	!LO:TX:a:t=t	!	!LO:N:vis=0	!
8c\L	4c\	4en/	4en/	1r	.
8B-\	.	.	.	.	.
8A\	8c\L	8f/L	8f/L	.	.
8G\J	8en\J	8b-/J	8b-/J	.	.
=66	=66	=66	=66	=66	=66
8F\L	8f\L	16a\LL	16a\LL	.	.
.	.	16ff\	16ff\	.	.
8BB-\J	8f\	16dd\	16dd\	.	.
.	.	16bb-\JJ	16bb-\JJ	.	.
8C/L	8f\	4gg\	4gg\	.	.
8CC/J	8en\J	.	.	.	.
!	!	!	!LO:LB:g=original	!	!
=67	=67	=67	=67	=67	=67
4FF/	4f\	8ff\L	8ff\L	2r	.
.	.	8cc\J	8cc\J	.	.
4r	4r	4f/	4f/	.	.
=68	=68	=68	=68	=68	=68
*tremolo	*tremolo	*	*	*	*
8F\L	8f\L	4a/	4cc\	4cc\	ſu-
8F\	8f\	.	.	.	.
.	.	8qqcc/	8qqee-/	.	.
8F\	8f\	8b-/L	8dd\L	8dd\	.
8F\J	8f\J	16a/L	16cc\L	16cc\LL	-mens
.	.	16g/JJ	16b-\JJ	16b-\JJ	ill-
=69	=69	=69	=69	=69	=69
8F\L	8f\L	8.a/L	8.cc\L	8.cc\L	.
8F\	8f\	.	.	.	.
.	.	16g/Jk	16b-\Jk	16b-\Jk	.
8F\	8f\	16f/LL	16a\LL	16a\LL	.
.	.	16g/	16b-\	16b-\	.
8F\J	8f\J	16a/	16cc\	16cc\	.
.	.	16b-/JJ	16dd\JJ	16dd\JJ	.
=70	=70	=70	=70	=70	=70
8F\L	8f\L	8cc\L	8ee-\L	8ee-\	.
8F\	8f\	16b-\L	16dd\L	16dd\LL	-lud
.	.	16a\JJ	16cc\JJ	16cc\JJ	.
.	.	8qqcc/	.	8qqee-/	.
!	!	!LO:TX:a:t=t	!	!LO:TX:a:t=t	!
8F\	8f\	4b-\	4dd\	4dd\	a-
8F\J	8f\J	.	.	.	.
!	!	!	!	!LO:LB:g=original	!
*Xtremolo	*Xtremolo	*	*	*	*
=71	=71	=71	=71	=71	=71
!LO:TX:a:t=P:problem: mixed beam	!LO:TX:a:t=P:problem: mixed beam	!	!	!	!
8F\L	8f\L	4a/	4cc\	4cc\	-ve
8FF/J	8F/J	.	.	.	.
16F\LL	16f\LL	4r	4r	4r	.
16E-\	16e-\	.	.	.	.
16D\	16d\	.	.	.	.
16C\JJ	16c\JJ	.	.	.	.
=72	=72	=72	=72	=72	=72
!LO:TX:a:t=P:problem: mixed beam	!	!	!	!	!
*	*tremolo	*	*	*	*
8BB-/L	8B-/L	4d/	4b-\	4b-\	ga-
8B-\	8B-/	.	.	.	.
.	.	8qqf/	8qqdd/	.	.
8B-\	8B-/	8e-/L	8cc\L	8cc\L	-bri-
8B-\J	8B-/J	16d/L	16b-\L	16b-\L	.
.	.	16c/JJ	16a\JJ	16a\JJ	.
=73	=73	=73	=73	=73	=73
*tremolo	*	*	*	*	*
8B-\L	8B-/L	8d/L	8.b-\L	8.b-\L	-e-
8B-\	8B-/	8d/J	.	.	.
.	.	.	16a\Jk	16a\Jk	.
!	!	!LO:TX:a:t=P:problem: mixed beam	!	!	!
8B-\	8B-/	8d/L	16b-\LL	16b-\LL	.
.	.	.	16cc\	16cc\	.
8B-\J	8B-/J	16b-\L	16dd\	16dd\	.
.	.	16cc\JJ	16ee-\JJ	16ee-\JJ	.
*Xtremolo	*Xtremolo	*	*	*	*
=74	=74	=74	=74	=74	=74
8B-\L	8r	8dd\L	8ff\L	8ff\	.
8B-\	4b-\	16cc\L	16ee-\L	16ee-\LL	-lis
.	.	16b-\JJ	16dd\JJ	16dd\JJ	.
.	.	8qqb-/	8qqdd/	.	.
8F\	.	4cc\	4ee-\	4ee-\	o-
8F\J	8a\	.	.	.	.
!	!	!LO:LB:g=original	!	!	!
=75	=75	=75	=75	=75	=75
!LO:TX:a:t=P:problem: mixed beam	!	!	!	!	!
*	*Xtremolo	*	*	*	*
8BB-/L	8b-\L	8b-X\L	8dd\L	4dd\	-re
8B-\	8b-\	8dd\	8ff\	.	.
8B-\	8b-\	8dd\	8ff\	8r	.
8B-\J	8b-\J	8dd\J	8ff\J	8ff\	fun-
=76	=76	=76	=76	=76	=76
*tremolo	*	*tremolo	*tremolo	*	*
*	*	*	*tremolo	*	*
8A-X\L	8a-X\L	8dd\L	8ff\L	8.ff\	-da
8A-X\	8a-X\	8dd\	8ff\	.	.
.	.	.	.	16gg\	.
8A-X\	8a-X\	8dd\	8ff\	8aa-X\	nos
8A-X\J	8a-X\J	8dd\J	8ff\J	8ff\	in
!LO:LB:g=original	!LO:LB:g=original	!	!	!	!
=77	=77	=77	=77	=77	=77
8A\L	8a\L	8dd\L	8ff\L	4.dd\	pa-
8A\	8a\	8dd\	8ff\	.	.
8A\	8a\	8dd\	8ff\	.	.
8A\J	8a\J	8dd\J	8ff\J	8ff\	.
=78	=78	=78	=78	=78	=78
.	.	.	.	8qqcc/	.
8G\L	8g\L	8dd\L	8ff\L	2bn\	.
8G\	8g\	8dd\	8ff\	.	.
8G\	8g\	8dd\	8ff\	.	.
8G\J	8g\J	8dd\J	8ff\J	.	.
=79	=79	=79	=79	=79	=79
8C/L	8g\L	8cc\L	8ee-\L	4cc\	-ce
8C/	8g\	8cc\	8ee-\	.	.
8C/	8g\	8cc\	8ee-\	8r	.
8C/J	8g\J	8cc\J	8ee-\J	8ee-\	fun-
=80	=80	=80	=80	=80	=80
8C/L	8g\L	8cc\L	8ee-\L	8.ee-\	.
8C/	8g\	8cc\	8ee-\	.	.
.	.	.	.	16ff\	-da
8C/	8g\	8cc\	8ee-\	8gg\	nos
8C/J	8g\J	8cc\J	8ee-\J	8ee-\	in
=81	=81	=81	=81	=81	=81
.	.	.	.	8qqdd/	.
8E-\L	8e-\L	8cc\L	8gg\L	4.cc\	pa-
8E-\	8e-\	8cc\	8gg\	.	.
8E-\	8e-\	8cc\	8gg\	.	.
8E-\J	8e-\J	8cc\J	8gg\J	8ee-\	.
=82	=82	=82	=82	=82	=82
.	.	.	.	8qqb-/	.
8E-\L	8c\L	8a/L	8ff\L	2a\	.
8E-\	8c\	8a/	8ff\	.	.
8E-\	8c\	8a/	8ff\	.	.
8E-\J	8c\J	8a/J	8ff\J	.	.
*Xtremolo	*Xtremolo	*Xtremolo	*Xtremolo	*	*
!	!	!	!LO:LB:g=original	!LO:LB:g=original	!
=83	=83	=83	=83	=83	=83
8D\L	8f\L	16b-\LL	16b-\LL	4b-\	-ce
.	.	16dd\	16dd\	.	.
8D\	8f\	16cc\	16cc\	.	.
.	.	16b-\JJ	16b-\JJ	.	.
!	!	!	!LO:TX:a:t=P:problem: mixed beam	!	!
8En\	8g\	16gg\LL	16gg\LL	8r	.
.	.	16b-\	16b-/	.	.
8E\J	8g\J	16a\	16a/	8b-\	in
.	.	16g\JJ	16g/JJ	.	.
=84	=84	=84	=84	=84	=84
4F\	4c\	8a/	4a/	16a/LL	pa-
.	.	.	.	16g/JJ	.
.	.	4r	.	8f/	ce
4r	4r	.	8r	8r	.
.	.	8f/	8f/	8f/	mu-
=85	=85	=85	=85	=85	=85
8r	2f\	4dd-X\	4dd-X\	4dd-X\	.
8B-\L	.	.	.	.	.
8A\	.	8cc\L	8cc\L	8cc\L	-tans
8F\J	.	8ee-\J	8ee-\J	8ee-\J	.
=86	=86	=86	=86	=86	=86
8B-\L	2f\	8dd-X\L	8dd-X\L	8dd-X\L	E-
8d-X\	.	8b-\	8b-\	8b-\J	.
8c\	.	8a\	8a\	8a\L	-vae
8e-\J	.	8cc\J	8cc\J	8cc\J	.
=87	=87	=87	=87	=87	=87
8d-X\L	2f\	8b-\L	8b-\L	8b-\L	E-
8B-\	.	8dd-X\	8dd-X\	8dd-X\J	.
8A\	.	8cc\	8cc\	8cc\L	-vae
8F\J	.	8ee-\J	8ee-\J	8ee-\J	.
=88	=88	=88	=88	=88	=88
*	*tremolo	*	*	*	*
8B-\L	8f\L	8dd-X\L	8dd-X\L	8dd-X\	no-
8A-X\	8f\	8b-\	8ddn\	4.ddn\	.
8A-\	8f\	8b-\	8dd\	.	.
8A-\J	8f\J	8b-\J	8dd\J	.	.
*	*Xtremolo	*	*	*	*
=89	=89	=89	=89	=89	=89
*	*	*tremolo	*	*	*
8G\L	8g\L	8b-\L	8ee-\L	8ee-\	.
8G-X\	8g-X\	8b-\	8een\	4.een\	.
8G-\	8g-\	8b-\	8ee\	.	.
8G-\J	8g-\J	8b-\J	8ee\J	.	.
*	*	*Xtremolo	*	*	*
*	*	*Xtremolo	*	*	*
=90	=90	=90	=90	=90	=90
*tremolo	*tremolo	*	*	*	*
8F\L	8f\L	8an\L	8ff\L	8ee-\L	.
8F\	8f\	16cc\L	16aan\L	16cc\L	.
.	.	16dd\JJ	16bb-\JJ	16dd\JJ	.
8F\	8f\	4ee-\	4ccc\	4ee-\	.
8F\J	8f\J	.	.	.	.
=91	=91	=91	=91	=91	=91
8F\L	8f\L	8ee-\	8ccc\	8ee-\	.
8F\	8f\	4dd\	4bb-\	4dd\	.
8F\	8f\	.	.	.	.
8F\J	8f\J	8cc\	8aa\	8cc\	-men
!	!	!LO:LB:g=original	!	!	!
=92	=92	=92	=92	=92	=92
8F\L	8f\L	8r	8r	8ff\L	no-
8F\	8f\	16a\LL	16cc\LL	16cc\L	.
.	.	16b-\JJ	16dd\JJ	16dd\JJ	.
8F\	8f\	4cc\	4ee-\	4ee-\	.
8F\J	8f\J	.	.	.	.
=93	=93	=93	=93	=93	=93
8F\L	8f\L	8cc\	8ee-\	8ee-\	.
8F\	8f\	4b-\	4dd\	4dd\	.
8F\	8f\	.	.	.	.
8F\J	8f\J	8a\	8cc\	8cc\	-men
=94	=94	=94	=94	=94	=94
8E-\L	8e-\L	8b-\	8gg\	16gg\LL	E-
.	.	.	.	16ff\	.
8E-\	8e-\	8r	8r	16gg\	.
.	.	.	.	16ff\JJ	.
8E-\	8e-\	8cc\	8gg\	16gg\LL	.
.	.	.	.	16ee-\	.
8E-\J	8e-\J	8r	8r	16dd\	.
.	.	.	.	16cc\JJ	.
!	!	!	!	!LO:LB:g=original	!
*	*Xtremolo	*	*	*	*
=95	=95	=95	=95	=95	=95
8D\L	8d\	8cc\	8ff\	16ff\LL	.
.	.	.	.	16ee-\	.
8D\	8r	8r	8r	16ff\	.
.	.	.	.	16ee-\JJ	.
8D\	8d\	8b-\	8ff\	16ff\LL	.
.	.	.	.	16dd\	.
8D\J	8r	8r	8r	16cc\	.
.	.	.	.	16b-\JJ	.
*Xtremolo	*	*	*	*	*
=96	=96	=96	=96	=96	=96
8C/L	8c/	8g/	8ee-\	16ee-\LL	.
.	.	.	.	16ff\	.
8C/	8r	8r	8r	16gg\	.
.	.	.	.	16aa\JJ	.
8BB-/	8B-/	8b-\	8dd\	8bb-\	.
8BB-/J	8r	8r	8r	8dd\	-vae
!LO:LB:g=original	!LO:LB:g=original	!	!	!	!
=97	=97	=97	=97	=97	=97
2F;\	2f\	4b-;/	4dd;\	4dd;\	no-
.	.	4a/	4cc\	4cc\	-men
!	!	!	!LO:PB:g=original	!	!
=98	=98	=98	=98	=98	=98
!	!	!LO:TX:a:t=Verte Cito	!	!	!
2r	2r	2r	2r	4r	.
.	.	.	.	8r	.
.	.	.	.	8ff\	mu-
!	!	!LO:PB:g=original	!	!	!
=99	=99	=99	=99	=99	=99
!LO:TX:a:t=P:problem: mixed beam	!	!	!	!	!
8BB-/L	8b-\L	16dd\LL	16dd\LL	4.ff\	.
.	.	16ff\	16ff\	.	.
8B-\	8dd\	16bb-\	16bb-\	.	.
.	.	16dd\JJ	16dd\JJ	.	.
8A\	8cc\	16ee-\LL	16ee-\LL	.	.
.	.	16cc\	16cc\	.	.
8F\J	8a\J	16ccc\	16ccc\	8ff\	-tanſ
.	.	16ee-\JJ	16ee-\JJ	.	.
=100	=100	=100	=100	=100	=100
!LO:TX:a:t=P:problem: mixed beam	!	!	!	!	!
8BB-/L	8b-\L	16dd\LL	16dd\LL	8ff\L	E-
.	.	16ff\	16ff\	.	.
8B-\	8dd\	16bb-\	16bb-\	8bb-\J	.
.	.	16dd\JJ	16dd\JJ	.	.
8A\	8cc\	16ee-\LL	16ee-\LL	4ff\	-vae
.	.	16cc\	16cc\	.	.
8F\J	8a\J	16ccc\	16ccc\	.	.
.	.	16ee-\JJ	16ee-\JJ	.	.
=101	=101	=101	=101	=101	=101
!LO:TX:a:t=P:problem: mixed beam	!	!	!	!	!
8BB-/L	8b-\L	16dd\LL	16dd\LL	4r	.
.	.	16ff\	16ff\	.	.
8B-\	8dd\	16bb-\	16bb-\	.	.
.	.	16dd\JJ	16dd\JJ	.	.
8A\	8cc\	16ee-\LL	16ee-\LL	4ff\	no-
.	.	16cc\	16cc\	.	.
8F\J	8a\J	16ccc\	16ccc\	.	.
.	.	16ee-\JJ	16ee-\JJ	.	.
=102	=102	=102	=102	=102	=102
!LO:TX:a:t=P:problem: mixed beam	!	!	!	!	!
8BB-/L	8b-\L	16dd\LL	16dd\LL	8ff\L	.
.	.	16ff\	16ff\	.	.
8B-\	8dd\	16bb-\	16bb-\	8bb-\J	.
.	.	16dd\JJ	16dd\JJ	.	.
8A\	8cc\	16ee-\LL	16ee-\LL	4ff\	-men
.	.	16cc\	16cc\	.	.
8F\J	8a\J	16ccc\	16ccc\	.	.
.	.	16ee-\JJ	16ee-\JJ	.	.
=103	=103	=103	=103	=103	=103
*	*tremolo	*tremolo	*	*	*
!LO:TX:a:t=P:problem: mixed beam	!	!	!	!	!
8BB-/L	8b-\L	2dd\	8dd\L	8r	.
8B-\	8b-\	.	8ff\	8ff\	mu-
8B-\	8b-\	.	8ff\	8ff\	.
!	!	!	!	!LO:TX:a:t=P:problem:przekreślony tekst	!
8B-\J	8b-\J	.	8ff\J	8ff\	-tans
*	*	*Xtremolo	*	*	*
=104	=104	=104	=104	=104	=104
*tremolo	*	*	*tremolo	*	*
8E-\L	8e-\L	8ee-\L	8gg\L	16gg\LL	E-
.	.	.	.	16ff\	.
8E-\	8e-\	8ee-\	8gg\	16gg\	.
.	.	.	.	16ff\JJ	.
8E-\	8e-\	8cc\	8gg\	16gg\LL	.
.	.	.	.	16ee-\	.
8E-\J	8e-\J	8cc\J	8gg\J	16dd\	.
.	.	.	.	16cc\JJ	.
=105	=105	=105	=105	=105	=105
8D\L	8d\L	8dd\L	8ff\L	16ff\LL	.
.	.	.	.	16ee-\	.
8D\	8d\	8dd\	8ff\	16ff\	.
.	.	.	.	16ee-\JJ	.
8D\	8d\	8b-\	8ff\	16ff\LL	.
.	.	.	.	16dd\	.
8D\J	8d\J	8b-\J	8ff\J	16cc\	.
.	.	.	.	16b-\JJ	.
!	!	!	!	!LO:LB:g=original	!
=106	=106	=106	=106	=106	=106
8C/L	8c\L	8b-\L	8ee-\L	16ee-\LL	.
.	.	.	.	16dd\	.
8C/	8c\	8b-\	8ee-\	16cc\	.
.	.	.	.	16dd\JJ	.
8C/	8c\	8a\	8ee-\	16ee-\LL	.
.	.	.	.	16ff\	.
8C/J	8c\J	8a\J	8ee-\J	16gg\	.
.	.	.	.	16aa\JJ	.
*	*	*	*Xtremolo	*	*
*Xtremolo	*Xtremolo	*	*Xtremolo	*	*
=107	=107	=107	=107	=107	=107
8BB-/L	8d\L	8bb-\L	8bb-\L	8bb-\L	.
8C/	8e-\	16aa\L	16aa\L	16aa\L	.
.	.	16gg\JJ	16gg\JJ	16gg\JJ	.
8D/	8f\	16ff\LL	16ff\LL	16ff\LL	.
.	.	16ee-\	16ee-\	16ee-\JJ	.
8E-/J	8g\J	16dd\	16dd\	16dd\LL	-vae
.	.	16cc\JJ	16cc\JJ	16cc\JJ	.
=108	=108	=108	=108	=108	=108
!LO:TX:a:t=P:problem: mixed beam	!	!LO:TX:a:t=t.	!	!	!
8F\L	8d/	8.b-\L	8.b-\L	8.b-\L	no-
8F\	4B-/	.	.	.	.
.	.	16cc\Jk	16cc\Jk	16cc\Jk	.
!	!	!LO:TX:a:t=t	!	!LO:TX:a:t=t	!
8FF/	.	4cc\	4cc\	4cc\	.
8FF/J	8A/	.	.	.	.
=109	=109	=109	=109	=109	=109
8BB-\L	8B-\L	8b-\L	8b-\L	4b-\	-men
8G\	8g\	16ee-\L	16ee-\L	.	.
.	.	16bb-\JJ	16bb-\JJ	.	.
8F\	8f\	16dd\LL	16dd\LL	4r	.
.	.	16bb-\	16bb-\	.	.
8E-\J	8e-\J	16cc\	16cc\	.	.
.	.	16bb-\JJ	16bb-\JJ	.	.
!	!	!LO:LB:g=original	!	!	!
=110	=110	=110	=110	=110	=110
8D\L	8d\L	16b-\LL	16b-\LL	8r	.
.	.	16bb-\	16bb-\	.	.
!	!	!	!LO:TX:a:t=P:problem:korekta nuty	!	!
!	!	!	!LO:TX:a:t=e	!	!
8G\	8g\	16ee-\	16ee-\	8ee-\L	Ev-
.	.	16bb-\JJ	16bb-\JJ	.	.
!	!	!	!LO:LB:g=original	!	!
8F\	8f\	16dd\LL	16dd\LL	8cc\J	.
.	.	16bb-\	16bb-\	.	.
8E-\J	8e-\J	16cc\	16cc\	8cc\	-ae
.	.	16bb-\JJ	16bb-\JJ	.	.
=111	=111	=111	=111	=111	=111
2F\	4f;\	4f/	4f/	2b-\	no-
.	4r	4r	4r	.	.
=112	=112	=112	=112	=112	=112
2F;\	2r	2r;	2r	2cc;\	.
=113	=113	=113	=113	=113	=113
*tremolo	*	*	*	*	*
8B-\L	4d\	4b-\	4b-\	4b-\	-men
8B-\	.	.	.	.	.
.	8qqf/	8qqdd/	8qqdd/	.	.
8B-\	8e-\L	8cc\L	8cc\L	4r	.
8B-\J	16d\L	16b-\L	16b-\L	.	.
.	16c\JJ	16a\JJ	16a\JJ	.	.
=114	=114	=114	=114	=114	=114
!	!	!LO:TX:a:t=t	!	!LO:N:vis=00	!
8B-\L	8d\L	8.b-\L	8.b-\L	0r	.
8B-\	8d\	.	.	.	.
.	.	16a\Jk	16a\Jk	.	.
8B-\	8d\J	16b-\LL	16b-\LL	.	.
.	.	16a\	16cc\	.	.
8B-\J	8r	16b-\	16dd\	.	.
.	.	16cc\JJ	16ee-\JJ	.	.
*Xtremolo	*	*	*	*	*
!	!LO:LB:g=original	!	!	!	!
=115	=115	=115	=115	=115	=115
8B-\L	8r	8dd\L	8ff\L	.	.
8B-\	4b-\	16cc\L	16ee-\L	.	.
.	.	16b-\JJ	16dd\JJ	.	.
.	.	8qqdd/	8qqff/	.	.
8F\	.	4cc\	4ee-\	.	.
8F\J	8a\	.	.	.	.
!LO:LB:g=original	!	!	!	!	!
=116	=116	=116	=116	=116	=116
!LO:TX:a:t=P:problem: mixed beam	!	!	!	!	!
8BB-/L	8b-\L	16dd\LL	16dd\LL	.	.
.	.	16ff\	16ff\	.	.
8B-\	8dd\	16bb-\	16bb-\	.	.
.	.	16dd\JJ	16dd\JJ	.	.
8A\	8cc\	16ee-\LL	16ee-\LL	.	.
.	.	16cc\	16cc\	.	.
8F\J	8a\J	16ccc\	16ccc\	.	.
.	.	16ee-\JJ	16ee-\JJ	.	.
=117	=117	=117	=117	=117	=117
!LO:TX:a:t=P:problem: mixed beam	!	!	!	!	!
8BB-/L	8b-\L	16dd\LL	16dd\LL	.	.
.	.	16ff\	16ff\	.	.
8B-\	8dd\	16bb-\	16bb-\	.	.
.	.	16dd\JJ	16dd\JJ	.	.
8A\	8cc\	16ee-\LL	16ee-\LL	.	.
.	.	16cc\	16cc\	.	.
8F\J	8a\J	16ccc\	16ccc\	.	.
.	.	16ee-\JJ	16ee-\JJ	.	.
=118	=118	=118	=118	=118	=118
!	!	!	!	!LO:N:vis=00	!
4BB-/	4b-\	16dd\LL	16dd\LL	0r	.
.	.	16ff\	16ff\	.	.
.	.	16bb-\	16bb-\	.	.
.	.	16ff\JJ	16ff\JJ	.	.
4E-\	4b-\	16gg\LL	16gg\LL	.	.
.	.	16ee-\	16ee-\	.	.
.	.	16dd\	16dd\	.	.
.	.	16cc\JJ	16cc\JJ	.	.
=119	=119	=119	=119	=119	=119
8r	8r	8.b-\L	8.b-\L	.	.
8D\L	8f\L	.	.	.	.
.	.	16cc\Jk	16cc\Jk	.	.
!	!	!LO:TX:a:t=e	!LO:TX:a:t=t	!	!
8E-\	8g\	4cc\	4cc\	.	.
8F\J	8a\J	.	.	.	.
=120	=120	=120	=120	=120	=120
4BB-/	4b-\	16dd\LL	16dd\LL	.	.
.	.	16ff\	16ff\	.	.
.	.	16bb-\	16bb-\	.	.
.	.	16ff\JJ	16ff\JJ	.	.
4E-\	4r	16gg\LL	16gg\LL	.	.
.	.	16ee-\	16ee-\	.	.
.	.	16dd\	16dd\	.	.
.	.	16cc\JJ	16cc\JJ	.	.
!	!	!LO:LB:g=original	!	!	!
=121	=121	=121	=121	=121	=121
8r	8r	8.b-\L	8.b-\L	.	.
8D\L	8f\L	.	.	.	.
.	.	16cc\Jk	16cc\Jk	.	.
!	!	!LO:TX:a:t=t	!LO:TX:a:t=t	!	!
8E-\	8g\	4cc\	4cc\	.	.
8F\J	8a\J	.	.	.	.
!	!	!	!LO:LB:g=original	!	!
=122	=122	=122	=122	=122	=122
4BB-;/	8b-\L	8b-/L	8b-/L	2r	.
.	8f\J	8f/J	8f/J	.	.
4r	(>4B-/	(>4B-;;/	4B-;;/	.	.
!	!	!	!	!LO:TX:a:t=verte cito	!
!	!	!	!	!LO:PB:g=original	!
=123||	=123;||	=123||	=123||	=123||;;	=123||
8G\L	4B-/)	4g/)	4g/	4g\	ſit
8G\	.	.	.	.	.
.	8qqd/	8qqb-/	8qqb-/	8qqb-/	.
8G\	8c/L	8a/L	8a/L	8a\L	laus
8G\J	16B-/L	16g/L	16g/L	16g\L	.
.	16A/JJ	16f#X/JJ	16f#X/JJ	16f#X\JJ	.
=124	=124	=124	=124	=124	=124
.	.	.	8qqf/	8qqf/	.
8G\L	8B-\L	4.g/	4.g/	4.g\	De-
8G\	8B-\	.	.	.	.
8G\	8d\	.	.	.	.
8F#X\J	8f#X\J	8a/	8dd\	8dd\	-o
=125	=125	=125	=125	=125	=125
!LO:TX:a:t=P:problem: mixed beam	!	!	!	!	!
.	.	8qqa/	8qqcc/	8qqcc/	.
8G\L	8g\L	2g/	2b-\	2b-\	Pa-
8G\	8g\	.	.	.	.
8C#X/	8c#X\	.	.	.	.
8C#/J	8c#\J	.	.	.	.
=126	=126	=126	=126	=126	=126
8D\L	8d\L	4f#X/	4a/	4a\	-tri
16F#X\L	16f#X\L	.	.	.	.
16A\JJ	16a\JJ	.	.	.	.
!LO:TX:a:t=P:problem: mixed beam	!	!	!	!	!
8d\L	8dd\L	4r	4r	4r	.
8D/J	8d\J	.	.	.	.
=127	=127	=127	=127	=127	=127
8E-X\L	8g\L	4cc\	4cc\	4cc\	ſit
8E-\	8g\	.	.	.	.
.	.	8qqee-/	8qqee-/	8qqee-/	.
8F\	8a-X\	8dd\L	8dd\L	8dd\L	laus
8G\J	8d\J	16cc\L	16cc\L	16cc\L	.
.	.	16bn\JJ	16bn\JJ	16b-\JJ	.
=128	=128	=128	=128	=128	=128
!LO:TX:a:t=P:problem: mixed beam	!	!	!	!	!
.	.	8qqb-/	8qqdd/	8qqb-/	.
8A-X\L	8c\L	4.cc\	4.cc\	4.cc\	De-
8G\	8c\	.	.	.	.
8A-\	8c\	.	.	.	.
8BBn/J	8Bn\J	8dd\	8gg\	8gg\	-o
!	!LO:LB:g=original	!	!	!	!
=129	=129	=129	=129	=129	=129
.	.	8qqdd/	8qqff/	8qqff/	.
8C\L	8c\L	2cc\	2ee-\	2ee-\	Pa-
8C\	8c\	.	.	.	.
8F#X\	8f#X\	.	.	.	.
8F#\J	8f#\J	.	.	.	.
!LO:LB:g=original	!	!	!	!	!
=130	=130	=130	=130	=130	=130
*	*tremolo	*	*	*	*
8G\L	8g\L	4bn\	4dd\	4dd\	-tri
8G\	8g\	.	.	.	.
8E-X\	8g\	4cc\	4gg\	8r	.
8E-\J	8g\J	.	.	8cc\	ſum-
=131	=131	=131	=131	=131	=131
*tremolo	*	*	*	*	*
!	!	!LO:TX:a:t=P:problem:korekta z ćwierćnuty na półnutę	!	!	!
8F\L	8a-X\L	2dd\	2ff\	4.dd-X\	.
8F\	8a-X\	.	.	.	.
8F\	8a-X\	.	.	.	.
8F\J	8a-X\J	.	.	16ff\LL	-mo
.	.	.	.	16ee-\JJ	.
=132	=132	=132	=132	=132	=132
8G\L	8b-\L	2dd\	2ff\	8dd-X\	ſum-
8G\	8b-\	.	.	8dd-\	-mo
8G\	8b-\	.	.	8dd-\	Chri-
8G\J	8b-\J	.	.	8dd-\	-sto
=133	=133	=133	=133	=133	=133
8A-X\L	8a-X\L	4dd\	4ff\	4dd\	de-
8A-X\	8a-X\	.	.	.	.
8A-X\	8a-X\	4cc\	4ee-\	4cc\	-cus
8A-X\J	8a-X\J	.	.	.	.
=134	=134	=134	=134	=134	=134
8F\L	8a\L	2ddn\	2aa-X\	4r	.
8F\	8a\	.	.	.	.
8F\	8a\	.	.	4ddn\	ſum-
8F\J	8a\J	.	.	.	.
!	!	!	!	!LO:LB:g=original	!
=135	=135	=135	=135	=135	=135
8G\L	8b-\L	2ee-\	2gg\	4.ee-\	.
8G\	8b-\	.	.	.	.
8G\	8b-\	.	.	.	.
8G\J	8b-\J	.	.	16gg\LL	-mo
.	.	.	.	16ff\JJ	.
=136	=136	=136	=136	=136	=136
8An\L	8cc\L	2ee-\	2gg\	8ee-\	ſum-
8An\	8cc\	.	.	8ee-\	-mo
8An\	8cc\	.	.	8ee-\	Chri-
8An\J	8cc\J	.	.	8ee-\	-ſto
*	*Xtremolo	*	*	*	*
=137	=137	=137	=137	=137	=137
8B-\L	8dd\	8dd\	8ff\	8dd\	de-
8B-\	8r	8r	8r	4ff\	.
8B-\	8b-\	8dd\	8ff\	.	.
8B-\J	8r	8r	8r	8aa-X\	.
!	!	!LO:LB:g=original	!	!	!
=138	=138	=138	=138	=138	=138
8B-\L	8b-\	8dd\	8ff\	8aa\	.
8B-\	8r	8r	8r	4ff\	.
8B-\	8b-\	8dd\	8ff\	.	.
8B-\J	8r	8r	8r	8dd\	-cus
!	!	!	!LO:LB:g=original	!	!
=139	=139	=139	=139	=139	=139
8B-\L	8b-\	8ee-\	8gg\	8b-\	de-
8B-\	8r	8r	8r	4ee-\	.
8B-\	8b-\	8ee-\	8gg\	.	.
8B-\J	8r	8r	8r	8gg\	.
=140	=140	=140	=140	=140	=140
8B-\L	8b-\	8ee-\	8gg\	8gg\	.
8B-\	8r	8r	8r	4ee-\	.
8B-\	8b-\	8ee-\	8gg\	.	.
8B-\J	8r	8r	8r	8b-\	-cus
=141	=141	=141	=141	=141	=141
8B-\L	8dd\	8ff\	8aa-X\	8a-X\	ſpi-
8B-\	8r	8r	8r	4dd\	.
8B-\	8b-\	8ff\	8aa-\	.	.
8B-\J	8r	8r	8r	8ff\	-ri-
=142	=142	=142	=142	=142	=142
8B-\L	8b-\	8ff\	8aa-X\	8ff\	-tu-
8B-\	8r	8r	8r	4dd\	.
8B-\	8b-\	8ff\	8aa-\	.	.
8B-\J	8r	8r	8r	8a-X\	-i
*Xtremolo	*	*	*	*	*
=143	=143	=143	=143	=143	=143
8E-\L	8b-\L	8gg\L	8gg\L	4g\	ſan-
8E-\	8g\	8bb-\	8bb-\	.	.
8F\	8a-X\	8dd\	8dd\	4dd\	-cto
8F\J	8a-\J	8ff\J	8ff\J	.	.
=144	=144	=144	=144	=144	=144
8G\L	8b-\L	8ee-\L	8ee-\L	2ee-\	Tri-
8G\	8b-\	8gg\	8gg\	.	.
8A-X\	8cc\	8ff\	8ff\	.	.
8A-\J	8cc\J	8aa-X\J	8aa-X\J	.	.
!	!LO:PB:g=original	!	!	!LO:LB:g=original	!
=145	=145	=145	=145	=145	=145
*tremolo	*	*	*	*	*
!	!LO:TX:a:t=P:problem: mixed beam	!	!	!	!
8B-\L	8b-\L	4ee-\	4gg\	8ee-\L	-bus
8B-\	8B-/	.	.	16dd\L	.
.	.	.	.	16cc\JJ	.
8B-\	8B-/	8r	8r	8b-\	ho-
8B-\J	8B-/J	8f/	8a-X/	8a-X\	-nor
*Xtremolo	*	*	*	*	*
=146	=146	=146	=146	=146	=146
*	*tremolo	*	*	*	*
!LO:TX:a:t=P:problem: mixed beam	!	!	!	!	!
8B-\L	8B-/L	4e-/	4g/	4g/	u-
8B-\	8B-/	.	.	.	.
8BB-/	8B-/	4d/	4f/	4f/	.
8BB-/J	8B-/J	.	.	.	.
*	*Xtremolo	*	*	*	*
*	*Xtremolo	*	*	*	*
=147	=147	=147	=147	=147	=147
!LO:TX:a:t=P:problem: mixed beam	!	!	!	!	!
8C/L	8c/L	8e-/L	8e-/L	4e-/	-nus
8c\	8c/	16a-X/L	16a-X/L	.	.
.	.	16ee-/JJ	16ee-/JJ	.	.
8B-\	8B-/	16g/LL	16g/LL	4r	.
.	.	16ee-/	16ee-/	.	.
8A-X\J	8A-X/J	16f/	16f/	.	.
.	.	16ee-/JJ	16ee-/JJ	.	.
=148	=148	=148	=148	=148	=148
!	!	!LO:TX:a:t=P:problem: mixed beam	!	!	!
8G\L	8G/L	16e-/LL	16e-/LL	4r	.
.	.	16ee-\	16ee-/	.	.
8c\	8c/	16a-X\	16a-X/	.	.
.	.	16ee-\JJ	16ee-/JJ	.	.
8B-\	8B-/	16g/LL	16g/LL	4ee-\	ho-
.	.	16ee-/	16ee-/	.	.
8A-X\J	8A-X/J	16f/	16f/	.	.
.	.	16ee-/JJ	16ee-/JJ	.	.
!LO:LB:g=original	!	!	!	!	!
=149	=149	=149	=149	=149	=149
2B-\	4G/	4B-/	4B-/	2ee-\	-nor
.	4r	4r	4r	.	.
=150	=150	=150	=150	=150	=150
!	!	!LO:TX:a:t=P:problem:klamra łukowa nad cyfrą 2	!	!	!
!	!	!LO:TX:a:t=2	!LO:N:vis=0	!	!
!	!LO:N:vis=0	!LO:N:vis=0	!	!	!
2BB-;/	1r	1r	1r	2ff\	u-
=151	=151	=151	=151	=151	=151
2EE-/	.	.	.	2ee-\	-nus
!	!	!LO:LB:g=original	!	!	!
=152	=152	=152	=152	=152	=152
*tremolo	*	*	*	*	*
!	!	!	!	!LO:N:vis=00	!
8B-\L	4d\	4b-\	4b-\	0r	.
8B-\	.	.	.	.	.
.	8qqf/	.	8qqdd/	.	.
8B-\	8e-\L	8cc\L	8cc\L	.	.
8B-\J	16d\L	16b-\L	16b-\L	.	.
.	16c\JJ	16a\JJ	16a\JJ	.	.
!	!	!	!LO:LB:g=original	!	!
=153	=153	=153	=153	=153	=153
8B-\L	8d\L	8.b-\L	8.b-\L	.	.
8B-\	8d\	.	.	.	.
.	.	16a\Jk	16a\Jk	.	.
8B-\	8d\J	16b-\LL	16b-\LL	.	.
.	.	16cc\	16cc\	.	.
8B-\J	8r	16dd\	16dd\	.	.
.	.	16ee-\JJ	16ee-\JJ	.	.
*Xtremolo	*	*	*	*	*
*Xtremolo	*	*	*	*	*
=154	=154	=154	=154	=154	=154
8B-\L	8r	8dd\L	8ff\L	.	.
8B-\	4b-\	16cc\L	16ee-\L	.	.
.	.	16b-\JJ	16dd\JJ	.	.
.	.	8qqdd/	.	.	.
!	!	!	!LO:TX:a:t=t	!	!
8F\	.	4cc\	4ee-\	.	.
8F\J	8a\	.	.	.	.
=155	=155	=155	=155	=155	=155
!LO:TX:a:t=P:problem: mixed beam	!	!	!	!	!
8BB-/L	8b-\L	16dd\LL	16dd\LL	.	.
.	.	16ff\	16ff\	.	.
8B-\	8dd\	16bb-\	16bb-\	.	.
.	.	16dd\JJ	16dd\JJ	.	.
8A\	8cc\	16ee-\LL	16ee-\LL	.	.
.	.	16cc\	16cc\	.	.
8F\J	8a\J	16ccc\	16ccc\	.	.
.	.	16ee-\JJ	16ee-\JJ	.	.
=156	=156	=156	=156	=156	=156
!LO:TX:a:t=P:problem: mixed beam	!	!	!	!LO:N:vis=00	!
8BB-/L	8b-\L	16dd\LL	16dd\LL	0r	.
.	.	16ff\	16ff\	.	.
8B-\	8dd\	16bb-\	16bb-\	.	.
.	.	16dd\JJ	16dd\JJ	.	.
8A\	8cc\	16ee-\LL	16ee-\LL	.	.
.	.	16cc\	16cc\	.	.
8F\J	8a\J	16ccc\	16ccc\	.	.
.	.	16ee-\JJ	16ee-\JJ	.	.
=157	=157	=157	=157	=157	=157
4BB-/	4b-\	16dd\LL	16dd\LL	.	.
.	.	16ff\	16ff\	.	.
.	.	16bb-\	16bb-\	.	.
.	.	16ff\JJ	16dd\JJ	.	.
4E-\	4b-\	16gg\LL	16gg\LL	.	.
.	.	16ee-\	16ee-\	.	.
.	.	16dd\	16dd\	.	.
.	.	16cc\JJ	16cc\JJ	.	.
=158	=158	=158	=158	=158	=158
8r	8r	8.b-\L	8.b-\L	.	.
8D\L	8f\L	.	.	.	.
.	.	16cc\Jk	16cc\Jk	.	.
!	!	!LO:TX:a:t=t	!LO:TX:a:t=t	!	!
8E-\	8g\	4cc\	4cc\	.	.
8F\J	8a\J	.	.	.	.
=159	=159	=159	=159	=159	=159
4BB-/	4b-\	16dd\LL	16dd\LL	.	.
.	.	16ff\	16ff\	.	.
.	.	16bb-\	16bb-\	.	.
.	.	16ff\JJ	16ff\JJ	.	.
4E-\	4b-\	16gg\LL	16gg\LL	.	.
.	.	16ee-\	16ee-\	.	.
.	.	16dd\	16dd\	.	.
.	.	16cc\JJ	16cc\JJ	.	.
=160	=160	=160	=160	=160	=160
!	!	!	!	!LO:N:vis=0	!
8r	8r	8.b-\L	8.b-\L	1r	.
8D\L	8f\L	.	.	.	.
!	!	!LO:TX:a:t=t	!	!	!
.	.	16cc\Jk	16cc\Jk	.	.
!	!	!	!LO:TX:a:t=t	!	!
8E-\	8g\	4cc\	4cc\	.	.
8F\J	8a\J	.	.	.	.
!	!LO:LB:g=original	!	!	!	!
=161	=161	=161	=161	=161	=161
!	!	!	!	!LO:TX:a:t=Dal Segno	!
4BB-/	8b-\L	8b-/L	8b-/L	.	.
.	8f\J	8f/J	8f/J	.	.
!LO:TX:a:t=Dal Segno.	!LO:TX:a:t=Dal Segno.	!LO:TX:a:t=Dal Segno	!LO:TX:a:t=Dal Segno.	!	!
4r	4B-/	4B-/	4B-/	.	.
!LO:TX:a:t=[segno]	!LO:TX:a:t=[segno]	!LO:TX:a:t=[segno]	!LO:TX:a:t=[segno]	!	!
!LO:TX:b:t=Laus D	!LO:TX:b:t=Laus DEO.	!	!	!	!
==	==	==	==	==	==
*-	*-	*-	*-	*-	*-
!!!system-decoration: [(g1)][(g2)][(g3)]
!!!RDF**kern: >= above
!!!RDF**kern: <= below
!!!ENC: Berenika Jozajtis
!!!END: 2020-06-07
!!!ENC:Anna Matuszewska
!!!END:2020-11-21
